picto/arrow-pointing-right-and-up-red-framed.svg

<svg class="color-immutable" width="30" height="30" viewBox="0 0 30 30" fill="none" xmlns="http://www.w3.org/2000/svg"><path d="M30 0H0V30H30V0Z" fill="#9B2423"/><path d="M24 6L11.0769 6.19485L6.67212 10.5998L15.6757 10.7936L8.44609 18.0233L10.2114 19.7886L11.9765 21.5537L19.2061 14.3241L19.4 23.3277L23.8049 18.9228L24 6Z" fill="white"/></svg>

<svg class="color-immutable" width="30" height="30" viewBox="0 0 30 30" fill="none" xmlns="http://www.w3.org/2000/svg"><g clip-path="url(#a)"><path d="M30 0H0v30h30V0Z" fill="#9B2423"/><path d="m24 6-12.923.195L6.672 10.6l9.004.194-7.23 7.23 1.765 1.765 1.765 1.765 7.23-7.23.194 9.004 4.405-4.405L24 6Z" fill="#fff"/></g><defs><clipPath id="a"><path fill="#fff" d="M0 0h30v30H0z"/></clipPath></defs></svg>
